X: 1
P: Greenwood Side
C: from Matt Petrie
C: arr. Terry Traub 2-24-2004
M: 4/4
L: 1/8
K: Bm
f|"Bm"BB/c/ BA|"Bm"B/c/d/e/ f2|"A"e>f e/f/e/d/|"A"cA Af|"Bm"BB/c/ BA|"Bm"B/c/d/e/ "D"f2|"A"ea "F#m"fe/f/|"Bm"dB B :|
c/e/|"Bm"f2 Bf|BB/c/ f2|"A"e>f e/f/e/d/|cA Ac/e/|"Bm"f2 Bf|"Bm"BB/c/ "D"f2|"A"ea "F#m"fe/f/|"Bm"dB B||
c/e/|"Bm"f2 Bf|BB/c/ f2|"A"e>f e/f/e/d/|cA Af|"Bm"BB/c/ BA|"Bm"B/c/d/e/ "D"f2|"A"ea "F#m"fe/f/|"Bm"dB B |]
